flaticon/weather/stars.svg

<svg xmlns="http://www.w3.org/2000/svg" width="32" height="32" viewBox="0 0 24 24">
    <path d="M21.1875 7.621094C21.097656 5.164062 19.074219 3.191406 16.59375 3.191406 14.132812 3.191406 12.125 5.132812 12.003906 7.5625 11.78125 7.566406 11.554688 7.589844 11.332031 7.644531 10.5 7.839844 9.792969 8.347656 9.339844 9.074219 9.304688 9.136719 9.269531 9.203125 9.234375 9.265625 8.082031 9.03125 6.898438 9.441406 6.136719 10.363281 5.632812 10.972656 5.382812 11.730469 5.410156 12.507812 3.558594 12.175781 1.671875 13 .667969 14.648438-.648438 16.820312.0429688 19.65625 2.210938 20.972656 2.277344 21.015625 2.347656 21.03125 2.417969 21.03125 2.554688 21.03125 2.6875 20.964844 2.761719 20.839844 2.875 20.652344 2.816406 20.40625 2.628906 20.289062.835938 19.203125.265625 16.859375 1.351562 15.066406 2.230469 13.617188 3.933594 12.941406 5.550781 13.359375 5.734375 13.949219 6.082031 14.472656 6.570312 14.871094 6.644531 14.933594 6.734375 14.964844 6.824219 14.964844 6.941406 14.964844 7.054688 14.914062 7.132812 14.816406 7.273438 14.648438 7.25 14.394531 7.078125 14.253906 6.683594 13.929688 6.410156 13.496094 6.285156 13.007812 6.285156 12.988281 6.273438 12.972656 6.269531 12.953125 6.246094 12.847656 6.226562 12.742188 6.214844 12.632812 6.15625 11.992188 6.34375 11.371094 6.753906 10.875 7.296875 10.214844 8.125 9.90625 8.949219 10.023438 8.835938 10.503906 8.832031 11.003906 8.945312 11.496094 8.992188 11.679688 9.15625 11.804688 9.335938 11.804688 9.367188 11.804688 9.398438 11.800781 9.429688 11.792969 9.644531 11.742188 9.777344 11.527344 9.726562 11.3125 9.578125 10.6875 9.683594 10.042969 10.023438 9.5 10.359375 8.953125 10.890625 8.570312 11.515625 8.425781 12.800781 8.121094 14.097656 8.921875 14.402344 10.210938 14.453125 10.429688 14.667969 10.558594 14.882812 10.511719 15.097656 10.460938 15.234375 10.246094 15.183594 10.03125 14.894531 8.808594 13.941406 7.921875 12.796875 7.648438 12.875 5.621094 14.546875 3.996094 16.59375 3.996094 18.632812 3.996094 20.296875 5.609375 20.386719 7.625 18.816406 7.828125 17.59375 9.171875 17.59375 10.800781 17.59375 11.023438 17.773438 11.199219 17.996094 11.199219 18.214844 11.199219 18.394531 11.023438 18.394531 10.800781 18.394531 9.476562 19.472656 8.398438 20.796875 8.398438 22.121094 8.398438 23.199219 9.476562 23.199219 10.800781 23.199219 11.023438 23.378906 11.199219 23.601562 11.199219 23.820312 11.199219 24 11.023438 24 10.800781 24 9.164062 22.769531 7.816406 21.1875 7.621094zM13.308594 18.921875L12.105469 20.125C11.949219 20.28125 11.949219 20.535156 12.105469 20.691406 12.183594 20.769531 12.289062 20.808594 12.390625 20.808594 12.492188 20.808594 12.59375 20.769531 12.671875 20.691406L13.875 19.488281C14.03125 19.332031 14.03125 19.078125 13.875 18.921875 13.71875 18.765625 13.464844 18.765625 13.308594 18.921875zM10.90625 21.324219L9.707031 22.527344C9.546875 22.683594 9.546875 22.933594 9.707031 23.09375 9.785156 23.171875 9.886719 23.210938 9.988281 23.210938 10.089844 23.210938 10.191406 23.171875 10.269531 23.09375L11.472656 21.890625C11.628906 21.734375 11.628906 21.480469 11.472656 21.324219 11.316406 21.167969 11.0625 21.167969 10.90625 21.324219zM18.914062 16.519531L17.710938 17.722656C17.554688 17.878906 17.554688 18.132812 17.710938 18.289062 17.789062 18.367188 17.890625 18.40625 17.996094 18.40625 18.097656 18.40625 18.199219 18.367188 18.277344 18.289062L19.480469 17.085938C19.636719 16.929688 19.636719 16.675781 19.480469 16.519531 19.324219 16.363281 19.070312 16.363281 18.914062 16.519531zM16.511719 18.921875L15.308594 20.125C15.152344 20.28125 15.152344 20.535156 15.308594 20.691406 15.386719 20.769531 15.492188 20.808594 15.59375 20.808594 15.695312 20.808594 15.796875 20.769531 15.875 20.691406L17.078125 19.488281C17.234375 19.332031 17.234375 19.078125 17.078125 18.921875 16.921875 18.765625 16.667969 18.765625 16.511719 18.921875zM13.074219 16.519531C12.917969 16.363281 12.664062 16.363281 12.507812 16.519531L11.304688 17.722656C11.148438 17.878906 11.148438 18.132812 11.304688 18.289062 11.382812 18.367188 11.488281 18.40625 11.589844 18.40625 11.691406 18.40625 11.792969 18.367188 11.871094 18.289062L13.074219 17.085938C13.230469 16.929688 13.230469 16.675781 13.074219 16.519531zM16.277344 16.519531C16.121094 16.363281 15.867188 16.363281 15.710938 16.519531L14.507812 17.722656C14.351562 17.878906 14.351562 18.132812 14.507812 18.289062 14.585938 18.367188 14.691406 18.40625 14.792969 18.40625 14.894531 18.40625 14.996094 18.367188 15.074219 18.289062L16.277344 17.085938C16.433594 16.929688 16.433594 16.675781 16.277344 16.519531zM10.671875 18.921875C10.515625 18.765625 10.261719 18.765625 10.105469 18.921875L8.90625 20.125C8.75 20.28125 8.75 20.535156 8.90625 20.691406 8.984375 20.769531 9.085938 20.808594 9.1875 20.808594 9.289062 20.808594 9.394531 20.769531 9.46875 20.691406L10.671875 19.488281C10.828125 19.332031 10.828125 19.078125 10.671875 18.921875zM10.671875 18.921875"/>
    <path d="M7.167969 5.617188C8.003906 5.746094 8.652344 6.394531 8.78125 7.230469 8.816406 7.441406 8.992188 7.597656 9.207031 7.597656L9.578125 7.570312 9.628906 7.230469C9.757812 6.394531 10.40625 5.746094 11.242188 5.617188 11.453125 5.585938 11.609375 5.40625 11.609375 5.195312L11.582031 4.824219 11.242188 4.769531C10.40625 4.640625 9.757812 3.992188 9.628906 3.160156 9.597656 2.945312 9.417969 2.792969 9.207031 2.792969L8.835938 2.816406 8.78125 3.15625C8.652344 3.992188 8.003906 4.640625 7.167969 4.769531L6.804688 4.851562 6.804688 5.195312 6.828125 5.5625zM9.207031 4.289062C9.429688 4.660156 9.742188 4.96875 10.109375 5.195312 9.742188 5.417969 9.429688 5.730469 9.207031 6.097656 8.980469 5.730469 8.671875 5.417969 8.300781 5.195312 8.671875 4.96875 8.980469 4.660156 9.207031 4.289062zM3.21875 8.355469C3.1875 8.148438 3.011719 7.996094 2.800781 7.996094L2.433594 8.019531 2.382812 8.355469C2.285156 8.992188 1.792969 9.484375 1.152344 9.582031L.796875 9.660156.820312 10.359375 1.160156 10.417969C1.792969 10.515625 2.285156 11.007812 2.382812 11.640625 2.414062 11.847656 2.589844 12 2.800781 12L3.164062 11.980469 3.21875 11.640625C3.316406 11.007812 3.808594 10.515625 4.445312 10.414062 4.652344 10.382812 4.800781 10.207031 4.800781 10L4.78125 9.632812 4.441406 9.582031C3.808594 9.480469 3.316406 8.992188 3.21875 8.355469zM2.800781 10.574219C2.644531 10.347656 2.449219 10.152344 2.222656 10 2.449219 9.84375 2.644531 9.648438 2.800781 9.421875 2.957031 9.648438 3.152344 9.84375 3.375 10 3.152344 10.152344 2.957031 10.347656 2.800781 10.574219zM.769531 4.019531L.769531 4.023438C1.808594 4.183594 2.613281 4.988281 2.773438 6.027344 2.804688 6.238281 2.984375 6.394531 3.199219 6.394531 3.414062 6.394531 3.59375 6.238281 3.628906 6.023438 3.789062 4.988281 4.59375 4.183594 5.632812 4.019531 5.847656 3.988281 6.003906 3.808594 6.003906 3.59375 6.003906 3.378906 5.847656 3.199219 5.632812 3.164062 4.59375 3.003906 3.789062 2.199219 3.628906 1.160156 3.59375.945312 3.414062.789062 3.199219.789062 2.984375.789062 2.804688.945312 2.773438 1.160156 2.613281 2.199219 1.808594 3.003906.769531 3.164062.554688 3.199219.398438 3.378906.398438 3.59375.398438 3.808594.554688 3.988281.769531 4.019531zM3.199219 2.347656C3.492188 2.871094 3.921875 3.304688 4.445312 3.59375 3.921875 3.882812 3.492188 4.3125 3.199219 4.835938 2.910156 4.3125 2.480469 3.882812 1.957031 3.59375 2.480469 3.304688 2.910156 2.871094 3.199219 2.347656zM3.199219 2.347656"/>
</svg>

<svg xmlns="http://www.w3.org/2000/svg" width="32" height="32" viewBox="0 0 24 24">
    <path d="M21.188 7.621a4.603 4.603 0 0 0-4.594-4.43 4.602 4.602 0 0 0-4.59 4.372A3.194 3.194 0 0 0 9.34 9.075c-.035.062-.07.128-.106.19a3.179 3.179 0 0 0-3.097 1.098 3.172 3.172 0 0 0-.727 2.145 4.593 4.593 0 0 0-4.742 2.14 4.61 4.61 0 0 0 1.543 6.325.372.372 0 0 0 .207.058c.137 0 .27-.066.344-.191a.404.404 0 0 0-.133-.55 3.806 3.806 0 0 1-1.277-5.224A3.788 3.788 0 0 1 5.55 13.36c.183.59.531 1.114 1.02 1.512a.393.393 0 0 0 .562-.055.398.398 0 0 0-.055-.562 2.364 2.364 0 0 1-.793-1.246c0-.02-.012-.035-.015-.055a2.39 2.39 0 0 1 .484-2.078 2.391 2.391 0 0 1 2.195-.852c-.113.48-.117.98-.004 1.473a.407.407 0 0 0 .485.297.4.4 0 0 0 .297-.48 2.364 2.364 0 0 1 .296-1.813 2.403 2.403 0 0 1 4.379.71.402.402 0 0 0 .782-.179 3.21 3.21 0 0 0-2.387-2.383 3.804 3.804 0 0 1 3.797-3.652 3.802 3.802 0 0 1 3.793 3.629 3.209 3.209 0 0 0-2.793 3.176c0 .222.18.398.402.398a.398.398 0 0 0 .399-.398 2.406 2.406 0 0 1 2.402-2.403 2.406 2.406 0 0 1 2.402 2.403c0 .222.18.398.403.398a.398.398 0 0 0 .398-.398 3.208 3.208 0 0 0-2.813-3.18zm0 0M13.309 18.922l-1.204 1.203a.4.4 0 0 0 .567.566l1.203-1.203a.4.4 0 0 0-.566-.566zm0 0M10.906 21.324l-1.199 1.203a.394.394 0 0 0 0 .567.396.396 0 0 0 .563 0l1.203-1.203a.4.4 0 0 0-.567-.567zm0 0M18.914 16.52l-1.203 1.203a.4.4 0 0 0 .566.566l1.203-1.203a.4.4 0 0 0-.566-.566zm0 0M16.512 18.922l-1.203 1.203a.4.4 0 0 0 .566.566l1.203-1.203a.4.4 0 0 0-.566-.566zm0 0M13.074 16.52a.4.4 0 0 0-.566 0l-1.203 1.203a.4.4 0 0 0 .566.566l1.203-1.203a.4.4 0 0 0 0-.566zm0 0M16.277 16.52a.4.4 0 0 0-.566 0l-1.203 1.203a.4.4 0 0 0 .566.566l1.203-1.203a.4.4 0 0 0 0-.566zm0 0M10.672 18.922a.4.4 0 0 0-.567 0l-1.199 1.203a.4.4 0 0 0 .281.684.39.39 0 0 0 .282-.118l1.203-1.203a.4.4 0 0 0 0-.566zm0 0"/>
    <path d="M7.168 5.617A1.923 1.923 0 0 1 8.781 7.23c.035.211.211.368.426.368l.371-.028.05-.34a1.923 1.923 0 0 1 1.614-1.613.428.428 0 0 0 .367-.422l-.027-.37-.34-.055A1.923 1.923 0 0 1 9.63 3.16a.425.425 0 0 0-.422-.367l-.371.023-.055.34A1.923 1.923 0 0 1 7.168 4.77l-.363.082v.343l.023.367zM9.207 4.29c.223.371.535.68.902.906-.367.223-.68.535-.902.903a2.706 2.706 0 0 0-.906-.903c.37-.226.68-.535.906-.906zm0 0M3.219 8.355a.42.42 0 0 0-.418-.359l-.367.024-.051.335a1.459 1.459 0 0 1-1.23 1.227l-.356.078.023.7.34.058c.633.098 1.125.59 1.223 1.223A.42.42 0 0 0 2.8 12l.363-.02.055-.34a1.467 1.467 0 0 1 1.226-1.226.416.416 0 0 0 .356-.414l-.02-.367-.34-.051A1.463 1.463 0 0 1 3.22 8.355zm-.418 2.22A2.185 2.185 0 0 0 2.223 10a2.26 2.26 0 0 0 .578-.578c.156.226.351.422.574.578a2.23 2.23 0 0 0-.574.574zm0 0M.77 4.02v.003c1.039.16 1.843.965 2.003 2.004a.43.43 0 0 0 .426.368.436.436 0 0 0 .43-.372A2.395 2.395 0 0 1 5.633 4.02a.43.43 0 0 0 .37-.426.436.436 0 0 0-.37-.43A2.387 2.387 0 0 1 3.629 1.16a.436.436 0 0 0-.43-.37.43.43 0 0 0-.426.37A2.387 2.387 0 0 1 .77 3.164a.436.436 0 0 0-.372.43.43.43 0 0 0 .372.426zM3.2 2.348c.292.523.722.957 1.245 1.246-.523.289-.953.719-1.246 1.242a3.166 3.166 0 0 0-1.242-1.242c.523-.29.953-.723 1.242-1.246zm0 0"/>
</svg>
